tn/layers-difference.svg

<svg viewBox="0 0 15 15" fill="none" xmlns="http://www.w3.org/2000/svg" height="1em" width="1em">
  <path fill-rule="evenodd" clip-rule="evenodd" d="M4 4V1.5C4 0.671573 4.67157 0 5.5 0H13.5C14.3284 0 15 0.671573 15 1.5V9.5C15 10.3284 14.3284 11 13.5 11H11V13.5C11 14.3284 10.3284 15 9.5 15H1.5C0.671573 15 0 14.3284 0 13.5V5.5C0 4.67157 0.671573 4 1.5 4H4ZM10 5V10H5V5H10Z" fill="black"/>
</svg>

<svg viewBox="0 0 15 15" fill="none" xmlns="http://www.w3.org/2000/svg" height="1em" width="1em">
  <path fill-rule="evenodd" clip-rule="evenodd" d="M4 4V1.5A1.5 1.5 0 0 1 5.5 0h8A1.5 1.5 0 0 1 15 1.5v8a1.5 1.5 0 0 1-1.5 1.5H11v2.5A1.5 1.5 0 0 1 9.5 15h-8A1.5 1.5 0 0 1 0 13.5v-8A1.5 1.5 0 0 1 1.5 4H4Zm6 1v5H5V5h5Z" fill="#000"/>
</svg>
